X:1
T:Celebration, 98.98.88
T:Celebration, 98.98.88
T:Swedish melody
T:Public Domain Courtesy of the Cyber Hymnal™
C:Swedish melody
Z:Public Domain
Z:Courtesy of the Cyber Hymnal™
%%score ( 1 2 ) ( 3 4 )
L:1/8
Q:1/4=100
M:3/4
K:Eb
V:1 treble 
V:2 treble 
V:3 bass 
V:4 bass 
V:1
 B,[B,E] [EG] | [EB]3 [EB] [Ec][EB] | E2 !fermata![EG][EB] [EA][CF] | [B,D]2 [DA]2 [EG][DF] | %4
 E2 z B, [B,E][EG] | [EB]3 [EB] [Ec][EB] | E2 !fermata![EG][EB] [EA][CF] | [B,D]2 [DA]2 [EG][DF] | %8
 E2 z E EE | [Ec]3 [Fd] [Ee][AB] | [Ge]3 [EG] F[FA] | [Dc]3 [EB] [DA][B,D] | [B,E]2 z |] %13
V:2
 B, x2 | x6 | E2 x4 | x6 | E2 B, x3 | x6 | E2 x4 | x6 | E2 EE E x | x6 | x4 F x | x6 | x3 |] %13
V:3
 B,[G,B,] [E,B,] | [E,G,]3 [E,G,] [E,A,][E,G,] | [G,B,]2 !fermata![E,B,][G,,B,] [A,,C][A,,A,] | %3
 [B,,F,]2 [B,,F,]2 [B,,B,][B,,A,] | [E,G,]2 z B, [G,B,][E,B,] | [E,G,]3 [E,G,] [E,A,][E,G,] | %6
 [G,B,]2 !fermata![E,B,][G,,B,] [A,,C][A,,A,] | [B,,F,]2 [B,,F,]2 [B,,B,][B,,A,] | %8
 [E,G,]2 z [G,B,] [F,A,][E,G,] | A,3 [A,B,] [G,B,][F,D] | [E,E]3 [G,B,] [A,C][F,C] | %11
 [B,,A,]3 [B,,G,] [B,,F,][B,,A,] | [E,G,]2 z |] %13
V:4
 B, x2 | x6 | x6 | x6 | x3 B, x2 | x6 | x6 | x6 | x6 | A,3 x3 | x6 | x6 | x3 |] %13

